X: 40483
T: Tombigbee
R: waltz
M: 3/4
K: Gmajor
z4 BA|:G2B2B2|d4 BA|G2B2B2|d4 Bc|B2A2A2|A3 Bcd|1 e4 d2|d4 BA:|2 e2d2F2|G4 d2||
|:g4 d2|g4 d2|e2 d3 e|B4 Bc|B2A2A2|A3 Bcd|1 e4 d2|d4 ef:|2 e2 d2 F2|G4 BA||

